X:2402
T:Cahal's
R:jig
N:The 'B' part can also be played an octave lower.
D:Solas: The Hour Before Daw
Z:Devin McCabe
M:6/8
L:1/8
K:BDor
dcB FBc|dcB f2e|def fed|e/2f/2e d cde|
!dcB FBc|dcB f2g|~a3 efd|cde edc:|
!:def a2f|afb afa|b2a fab|afa baf|
!def a2f|afb afa|d'ba b2a|fab afe:|


